X:1
T:Title
%%score { ( 1 4 ) | ( 2 3 ) }
L:1/8
M:6/8
K:F
V:1 treble nm="Grand Piano"
V:4 treble 
V:2 bass 
V:3 bass 
V:1
 z3 z2[Q:1/4=81] c | cdc AGF | [DG][DF]D C2 C/C/ | FFF FEF | [EG]3- [EG]2 A/B/ | cdc AGF | %6
 [DG][DF]D C2 C | FFF EFG | F6 | [EG][_E^F][=EG] [Ec]3 | A_A=A c3 | c2 c =BAG | [Ec]6 | cdc A2 F | %14
 [DG][DF]D C3 | CFF FGA | GFG F3 |] %17
V:2
 z3 z2 [F,A,F] | [F,A,F][F,B,F][F,A,F] [F,CF][F,B,F][F,A,] | %2
 [B,,B,][B,,B,][B,,F,B,] [F,A,]2 A,/A,/ | [F,A,C][F,A,C][F,A,C] [D,A,D][D,A,D][D,A,D] | z3 z2 .C | %5
 [F,A,F][F,B,F][F,A,F] [F,CF][F,B,F][F,A,] | [B,,B,][B,,B,][B,,F,B,] [F,A,]2 [F,A,] | %7
 [F,A,C][F,A,C][F,A,C] [C,G,C][C,A,C][C,B,C] | [F,A,C]6 | [C,C][C,C][C,C] [C,C]3 | %10
 [F,CF][F,=B,F][F,CF] [F,A,F]3 | [G,CE]2 [G,EG] [G,DF][G,CF][G,=B,F] | C3 z3 | %13
 [F,A,F][F,B,F][F,A,F] [F,CF]2 [F,A,C] | [B,,B,][B,,B,][B,,F,B,] [F,A,]3 | %15
 [F,A,][F,A,][F,A,] [F,A,][F,B,][F,C] | [C,B,C][C,A,C][C,B,C] [F,A,C]3 |] %17
V:3
 x6 | x6 | z3 z2 F, | x6 | [C,C]3- [C,C]2 [F,F]/-[F,G,F]/ | x6 | x6 | x6 | x6 | x6 | x6 | x6 | %12
 C,6 | x6 | x6 | x6 | x6 |] %17
V:4
 x6 | x6 | x6 | x6 | x6 | x6 | x6 | x6 | x6 | x6 | x6 | x6 | z3 B,3 | x6 | x6 | x6 | x6 |] %17

